app/public/logos/weth.svg

<svg xmlns="http://www.w3.org/2000/svg" width="350pt" height="350pt" style="isolation:isolate" viewBox="0 0 350 350"><defs><clipPath id="a"><path d="M0 0h350v350H0z"/></clipPath></defs><g clip-path="url(#a)"><path d="M0 0h350v350H0z" style="fill:#fefeff"/><clipPath id="b"><path fill="#FFF" d="M35 35h280v280H35z"/></clipPath><g clip-path="url(#b)"><path d="M113.498 312.696c70.379 0 70.379-1.048 82.312-4.591 15.595-4.629-44.03-45.901-82.312-45.901s-69.315 11.302-69.315 25.245 31.035 25.247 69.315 25.247"/><path d="m273.302 98.018 3.238 3.489-2.831 3.826c-91.786 124.103-144.661 180.293-167.095 172.756-13.665-4.59-27.369-18.396-41.073-38.442-4.817-7.046-9.34-14.465-13.454-21.849-2.74-4.917-5.059-9.401-6.262-11.927-1.536-3.222-2.185-5.207-2.699-7.814l-.061-.313c-.215-1.107-.289-1.457-.45-2.061a125.3 125.3 0 0 1-4.174-32.161c0-69.08 56.001-125.081 125.081-125.081 21.643 0 42.498 5.508 60.982 15.847l.477.299c15.133 10.536 31.229 25.012 48.321 43.431m-54.645-33.852c-16.722-9.299-35.563-14.25-55.135-14.25-62.742 0-113.606 50.864-113.606 113.606a113.8 113.8 0 0 0 3.791 29.217c.248.936.36 1.463.623 2.819l.054.278c.332 1.682.683 2.754 1.799 5.097 1.099 2.304 3.306 6.573 5.928 11.279 3.954 7.097 8.299 14.224 12.903 20.959 12.382 18.112 24.661 30.482 35.254 34.04 14.128 4.746 67.315-51.556 151.369-164.858-15.26-16.108-29.596-28.837-42.98-38.187"/><path fill="#EC1C79" d="M218.654 64.175c-16.721-9.299-35.562-14.25-55.134-14.25-62.743 0-113.606 50.864-113.606 113.607 0 9.97 1.283 19.765 3.79 29.217.249.934.361 1.463.624 2.818l.054.278c.332 1.682.682 2.754 1.799 5.097 1.098 2.304 3.305 6.573 5.928 11.279 3.954 7.097 8.299 14.224 12.903 20.96 12.381 18.111 24.661 30.481 35.253 34.039 14.129 4.746 67.316-51.556 151.369-164.858-15.26-16.108-29.596-28.837-42.98-38.187"/><path d="M186.48 311.55c-69.081 0-125.082-56.001-125.082-125.082S117.399 61.387 186.48 61.387s125.082 56.001 125.082 125.081S255.561 311.55 186.48 311.55m0-11.475c62.743 0 113.606-50.863 113.606-113.607S249.223 72.862 186.48 72.862 72.874 123.725 72.874 186.468c0 62.744 50.863 113.607 113.606 113.607"/><path fill="#FFF" d="M186.478 300.084c62.743 0 113.606-50.863 113.606-113.606 0-62.744-50.863-113.607-113.606-113.607-62.744 0-113.607 50.863-113.607 113.607s50.863 113.606 113.607 113.606"/><path fill-rule="evenodd" d="m101.489 209.747-15.037-45.305h13.174l7.84 26.026 8.675-26.155h10.732l8.675 26.155 7.84-26.026h12.917l-15.037 45.305h-10.861l-9.061-25.898-8.996 25.898zm59.764-.322v-44.983h36.18v10.604h-23.841v6.811h21.591v9.832h-21.591v7.133h24.163v10.603zm53.852 0v-34.059h-13.496v-10.924h39.458v10.924h-13.495v34.059zm31.424 0v-44.983h12.467v16.836h16.001v-16.836h12.467v44.983h-12.467v-17.093h-16.001v17.093z"/><path d="M45.891 150.922a6.427 6.427 0 0 1 5.748-11.495l18.36 9.18a6.424 6.424 0 0 1 2.874 8.621 6.426 6.426 0 0 1-8.621 2.875zM43.782 181.361a6.426 6.426 0 0 1 5.386-11.669l18.36 8.473a6.425 6.425 0 0 1 3.142 8.527 6.424 6.424 0 0 1-8.527 3.142z"/></g></g></svg>

<?xml version="1.0" encoding="UTF-8" standalone="no"?><!-- Generator: Gravit.io --><svg xmlns="http://www.w3.org/2000/svg" xmlns:xlink="http://www.w3.org/1999/xlink" style="isolation:isolate" viewBox="0 0 350 350" width="350pt" height="350pt"><defs><clipPath id="_clipPath_EsZyYzjlEry8sH9dpzBklImgTtIlzVtH"><rect width="350" height="350"/></clipPath></defs><g clip-path="url(#_clipPath_EsZyYzjlEry8sH9dpzBklImgTtIlzVtH)"><rect width="350" height="350" style="fill:rgb(254,254,255)"/><clipPath id="_clipPath_BvjtJTcVf3PxgLAQd1l2XJwEQBF36YQ0"><rect x="35" y="35" width="280" height="280" transform="matrix(1,0,0,1,0,0)" fill="rgb(255,255,255)"/></clipPath><g clip-path="url(#_clipPath_BvjtJTcVf3PxgLAQd1l2XJwEQBF36YQ0)"><g><path d=" M 113.498 312.696 C 183.877 312.696 183.877 311.648 195.81 308.105 C 211.405 303.476 151.78 262.204 113.498 262.204 C 75.216 262.204 44.183 273.506 44.183 287.449 C 44.183 301.393 75.218 312.696 113.498 312.696 Z " fill="rgb(0,0,0)"/><path d=" M 273.302 98.018 L 276.54 101.507 L 273.709 105.333 C 181.923 229.436 129.048 285.626 106.614 278.089 C 92.949 273.499 79.245 259.693 65.541 239.647 C 60.724 232.601 56.201 225.182 52.087 217.798 C 49.347 212.881 47.028 208.397 45.825 205.871 C 44.289 202.649 43.64 200.664 43.126 198.057 C 43.095 197.897 43.095 197.897 43.065 197.744 C 42.85 196.637 42.776 196.287 42.615 195.683 C 39.853 185.274 38.441 174.489 38.441 163.522 C 38.441 94.442 94.442 38.441 163.522 38.441 C 185.165 38.441 206.02 43.949 224.504 54.288 L 224.981 54.587 C 240.114 65.123 256.21 79.599 273.302 98.018 Z  M 218.657 64.166 C 201.935 54.867 183.094 49.916 163.522 49.916 C 100.78 49.916 49.916 100.78 49.916 163.522 C 49.916 173.493 51.199 183.288 53.707 192.739 C 53.955 193.675 54.067 194.202 54.33 195.558 C 54.358 195.7 54.358 195.7 54.384 195.836 C 54.716 197.518 55.067 198.59 56.183 200.933 C 57.282 203.237 59.489 207.506 62.111 212.212 C 66.065 219.309 70.41 226.436 75.014 233.171 C 87.396 251.283 99.675 263.653 110.268 267.211 C 124.396 271.957 177.583 215.655 261.637 102.353 C 246.377 86.245 232.041 73.516 218.657 64.166 Z " fill="rgb(0,0,0)"/><path d=" M 218.654 64.175 C 201.933 54.876 183.092 49.925 163.52 49.925 C 100.777 49.925 49.914 100.789 49.914 163.532 C 49.914 173.502 51.197 183.297 53.704 192.749 C 53.953 193.683 54.065 194.212 54.328 195.567 C 54.355 195.71 54.355 195.71 54.382 195.845 C 54.714 197.527 55.064 198.599 56.181 200.942 C 57.279 203.246 59.486 207.515 62.109 212.221 C 66.063 219.318 70.408 226.445 75.012 233.181 C 87.393 251.292 99.673 263.662 110.265 267.22 C 124.394 271.966 177.581 215.664 261.634 102.362 C 246.374 86.254 232.038 73.525 218.654 64.175 Z " fill="rgb(236,28,121)"/><path d=" M 186.48 311.55 C 117.399 311.55 61.398 255.549 61.398 186.468 C 61.398 117.388 117.399 61.387 186.48 61.387 C 255.561 61.387 311.562 117.388 311.562 186.468 C 311.562 255.549 255.561 311.55 186.48 311.55 Z  M 186.48 300.075 C 249.223 300.075 300.086 249.212 300.086 186.468 C 300.086 123.725 249.223 72.862 186.48 72.862 C 123.737 72.862 72.874 123.725 72.874 186.468 C 72.874 249.212 123.737 300.075 186.48 300.075 Z " fill="rgb(0,0,0)"/><path d=" M 186.478 300.084 C 249.221 300.084 300.084 249.221 300.084 186.478 C 300.084 123.734 249.221 72.871 186.478 72.871 C 123.734 72.871 72.871 123.734 72.871 186.478 C 72.871 249.221 123.734 300.084 186.478 300.084 Z " fill="rgb(255,255,255)"/><path d=" M 101.489 209.747 L 86.452 164.442 L 99.626 164.442 L 107.466 190.468 L 116.141 164.313 L 126.873 164.313 L 135.548 190.468 L 143.388 164.442 L 156.305 164.442 L 141.268 209.747 L 130.407 209.747 L 121.346 183.849 L 112.35 209.747 L 101.489 209.747 Z  M 161.253 209.425 L 161.253 164.442 L 197.433 164.442 L 197.433 175.046 L 173.592 175.046 L 173.592 181.857 L 195.183 181.857 L 195.183 191.689 L 173.592 191.689 L 173.592 198.822 L 197.755 198.822 L 197.755 209.425 L 161.253 209.425 Z  M 215.105 209.425 L 215.105 175.366 L 201.609 175.366 L 201.609 164.442 L 241.067 164.442 L 241.067 175.366 L 227.572 175.366 L 227.572 209.425 L 215.105 209.425 Z  M 246.529 209.425 L 246.529 164.442 L 258.996 164.442 L 258.996 181.278 L 274.997 181.278 L 274.997 164.442 L 287.464 164.442 L 287.464 209.425 L 274.997 209.425 L 274.997 192.332 L 258.996 192.332 L 258.996 209.425 L 246.529 209.425 Z " fill-rule="evenodd" fill="rgb(0,0,0)"/><path d=" M 45.891 150.922 C 42.717 149.335 41.43 145.475 43.017 142.3 C 44.604 139.126 48.464 137.839 51.639 139.427 L 69.999 148.607 C 73.174 150.194 74.461 154.054 72.873 157.228 C 71.286 160.403 67.426 161.69 64.252 160.103 L 45.891 150.922 Z " fill="rgb(0,0,0)"/><path d=" M 43.782 181.361 C 40.56 179.873 39.153 176.056 40.64 172.834 C 42.127 169.611 45.945 168.204 49.168 169.692 L 67.528 178.165 C 70.751 179.653 72.158 183.47 70.67 186.692 C 69.183 189.915 65.365 191.322 62.143 189.834 L 43.782 181.361 Z " fill="rgb(0,0,0)"/></g></g></g></svg>
